packages/core/src/svgs/tokens/mono/BROCK.svg

<svg width="24" height="24" viewBox="0 0 24 24" fill="none" xmlns="http://www.w3.org/2000/svg">
<path d="M3.27017 5.47097L10.9941 2.03552C11.0635 2.00447 11.1419 1.9999 11.2145 2.02266C11.2871 2.0454 11.3489 2.09392 11.3883 2.15905C11.4095 2.22546 11.4175 2.29544 11.4117 2.36495V4.85918C11.4117 4.87095 11.3999 4.8886 11.3883 4.89447C11.3773 4.90556 11.3626 4.9119 11.3471 4.91212L3.30546 5.7298C3.28635 5.73092 3.26733 5.72652 3.25064 5.71714C3.23396 5.70775 3.22032 5.69377 3.21134 5.67686C3.15252 5.58863 3.17016 5.51804 3.27017 5.47097ZM12.9883 2.03552L20.7534 5.47686C20.8298 5.51804 20.8475 5.57687 20.7886 5.67099C20.7794 5.68588 20.7664 5.69807 20.7509 5.70633C20.7354 5.7146 20.7179 5.71863 20.7004 5.71804L12.6412 4.90624C12.6294 4.90624 12.6118 4.90624 12.6059 4.89447C12.6002 4.88933 12.5956 4.88296 12.5925 4.87585C12.5894 4.86874 12.5881 4.86104 12.5882 4.85329V2.29435C12.5882 2.19434 12.6177 2.1414 12.6177 2.13551C12.7117 2.00022 12.8353 1.96493 12.9883 2.03552Z" fill="white"/>
<path d="M6.60574 13.4422C5.32332 11.5244 4.03502 9.61264 2.74085 7.70076C2.48789 7.33015 2.52907 7.04778 3.0291 7.03014L10.9 6.20068C10.9157 6.20068 10.9306 6.20689 10.9416 6.21791C10.9527 6.22895 10.9589 6.24391 10.9589 6.25951C10.9605 6.26728 10.9605 6.27529 10.9589 6.28304L6.78221 13.554C6.7774 13.5623 6.77057 13.5695 6.76237 13.5746C6.75416 13.5798 6.74481 13.5828 6.73516 13.5833C6.72602 13.5833 6.71701 13.5813 6.70885 13.5772C6.70068 13.573 6.69357 13.5671 6.68809 13.5599C6.65875 13.522 6.63127 13.4827 6.60574 13.4422ZM21.1065 7.03602C21.1895 7.05175 21.2638 7.09776 21.3149 7.16515C21.3659 7.23253 21.3902 7.3165 21.3829 7.40075C21.377 7.45958 21.3536 7.51839 21.3241 7.55957L17.2474 13.5599C17.2455 13.5641 17.2427 13.568 17.2394 13.5713C17.236 13.5744 17.232 13.5769 17.2276 13.5785C17.2232 13.5802 17.2186 13.5809 17.2139 13.5807C17.2092 13.5806 17.2046 13.5795 17.2003 13.5776L17.1886 13.5599L13.0119 6.28304C12.9766 6.22422 12.9943 6.20068 13.0531 6.20068L21.1065 7.03602Z" fill="white"/>
<path d="M2.58775 16.1598V9.73004C2.58821 9.70918 2.59369 9.68886 2.60371 9.67061C2.61374 9.65235 2.62802 9.63684 2.64534 9.62531C2.66266 9.61364 2.68251 9.6065 2.70321 9.60431C2.7239 9.60197 2.74483 9.60486 2.76422 9.61241C2.79364 9.61831 2.82305 9.63588 2.83482 9.65949L5.70555 14.3538C5.71518 14.3684 5.72178 14.3847 5.72494 14.4019C5.72808 14.419 5.72773 14.4367 5.72388 14.4538C5.72004 14.4708 5.71278 14.4868 5.70255 14.5011C5.69231 14.5153 5.67933 14.5272 5.66437 14.5361L2.78775 16.2715C2.76756 16.2848 2.74407 16.2921 2.71994 16.2927C2.69581 16.2932 2.67201 16.287 2.6512 16.2748C2.63039 16.2626 2.61343 16.2447 2.60221 16.2235C2.591 16.2021 2.58599 16.1779 2.58775 16.1539V16.1598ZM18.2414 14.3891L21.1357 9.64768C21.1453 9.63039 21.1596 9.61611 21.1769 9.6065L21.2593 9.57123C21.2749 9.5634 21.2922 9.55956 21.3098 9.56011C21.3272 9.56066 21.3442 9.56546 21.3595 9.57425C21.3746 9.58303 21.3873 9.59539 21.3965 9.61021C21.4057 9.62503 21.4111 9.64206 21.4122 9.65949V16.201C21.4122 16.229 21.401 16.256 21.3811 16.2758C21.3614 16.2957 21.3343 16.3068 21.3063 16.3068L21.2475 16.2892L18.2767 14.5244C18.2543 14.5113 18.2376 14.4903 18.2296 14.4656C18.2256 14.4518 18.2245 14.4373 18.2266 14.4232C18.2287 14.4089 18.2337 14.3953 18.2414 14.3832V14.3891Z" fill="white"/>
<path d="M12.7822 21.2246C12.3586 21.9776 11.8704 22.4188 11.3114 21.4187C10.1218 19.2901 8.93347 17.1605 7.7466 15.0302C7.74629 15.0149 7.74991 15 7.75713 14.9865C7.76435 14.9732 7.77491 14.9618 7.78778 14.9537C7.80033 14.9464 7.81448 14.9424 7.82896 14.9419H16.1529C16.1649 14.9423 16.1765 14.9457 16.1868 14.9519C16.1971 14.9581 16.2058 14.9669 16.2117 14.9773C16.2184 14.9888 16.222 15.002 16.222 15.0155C16.222 15.0289 16.2184 15.0421 16.2117 15.0538L12.7822 21.2246Z" fill="white"/>
<path d="M6.61155 15.7065L9.67638 21.2363C9.69203 21.265 9.7004 21.2971 9.70067 21.3299C9.70095 21.3625 9.69312 21.3949 9.67802 21.4239C9.66293 21.453 9.64096 21.4778 9.61406 21.4964C9.58702 21.5149 9.556 21.5266 9.52347 21.5303L9.29987 21.548C9.25468 21.5532 9.20903 21.5428 9.17049 21.5186L3.33491 17.7125C3.29365 17.6838 3.26468 17.6407 3.25379 17.5917C3.24289 17.5426 3.25085 17.4912 3.27609 17.4478C3.29373 17.4183 3.31727 17.389 3.34667 17.3772L6.33506 15.6301C6.35778 15.6164 6.38302 15.6072 6.40929 15.6033C6.43558 15.5995 6.46237 15.6009 6.48811 15.6073C6.51384 15.6139 6.53802 15.6256 6.55921 15.6416C6.5804 15.6575 6.59819 15.6777 6.61155 15.7006V15.7065ZM14.4472 21.0304C15.4473 19.2185 16.4355 17.3949 17.465 15.6065C17.4686 15.5985 17.4739 15.5915 17.4805 15.5858C17.4872 15.5801 17.4951 15.576 17.5036 15.5738C17.512 15.5715 17.5209 15.5712 17.5294 15.5727C17.538 15.5744 17.5461 15.5778 17.5533 15.583C18.6003 16.1903 19.6435 16.804 20.6828 17.4242C20.7416 17.4595 20.777 17.4948 20.7887 17.5243C20.8005 17.5537 20.8005 17.583 20.7887 17.6183C20.7826 17.644 20.7681 17.6668 20.7475 17.6831L14.8942 21.5068C14.5002 21.7716 14.2472 21.3833 14.4472 21.0304Z" fill="white"/>
</svg>

<svg xmlns="http://www.w3.org/2000/svg" width="24" height="24" fill="none" viewBox="0 0 24 24">
    <path fill="#fff" d="m3.27 5.471 7.724-3.435a.31.31 0 0 1 .394.123q.032.1.024.206v2.494c0 .012-.012.03-.024.035a.06.06 0 0 1-.04.018l-8.043.818a.1.1 0 0 1-.094-.053q-.089-.134.06-.206m9.718-3.435 7.765 3.44c.077.042.095.1.036.195a.1.1 0 0 1-.089.047l-8.059-.812c-.012 0-.03 0-.035-.012a.05.05 0 0 1-.018-.04v-2.56c0-.1.03-.153.03-.158q.14-.205.37-.1M6.606 13.442Q4.682 10.566 2.74 7.701c-.253-.37-.212-.653.288-.67L10.9 6.2a.06.06 0 0 1 .059.059v.023l-4.177 7.271a.06.06 0 0 1-.047.03.06.06 0 0 1-.047-.024 2 2 0 0 1-.082-.118m14.5-6.406a.34.34 0 0 1 .277.365.34.34 0 0 1-.059.159l-4.077 6-.008.011a.04.04 0 0 1-.039.007l-.011-.018-4.177-7.277c-.035-.059-.018-.082.041-.082zM2.588 16.16V9.73a.13.13 0 0 1 .176-.118c.03.006.06.024.07.047l2.872 4.695a.13.13 0 0 1-.042.182l-2.876 1.736a.129.129 0 0 1-.2-.118zm15.653-1.77 2.895-4.742a.1.1 0 0 1 .04-.041l.083-.036a.105.105 0 0 1 .137.04q.015.022.016.048v6.542a.106.106 0 0 1-.106.106l-.059-.018-2.97-1.765a.1.1 0 0 1-.047-.058.1.1 0 0 1 .011-.083zm-5.459 6.835c-.423.753-.912 1.194-1.47.194q-1.785-3.194-3.565-6.389a.09.09 0 0 1 .04-.076.1.1 0 0 1 .042-.012h8.324a.07.07 0 0 1 .059.035.08.08 0 0 1 0 .077zm-6.17-5.518 3.064 5.53a.2.2 0 0 1-.062.26.2.2 0 0 1-.09.033l-.224.018a.2.2 0 0 1-.13-.03l-5.835-3.806a.2.2 0 0 1-.059-.264.16.16 0 0 1 .07-.07l2.99-1.748a.2.2 0 0 1 .223.012.2.2 0 0 1 .053.059zm7.835 5.323c1-1.812 1.989-3.635 3.018-5.424a.06.06 0 0 1 .039-.032.06.06 0 0 1 .05.009q1.57.91 3.129 1.841.088.054.106.1a.13.13 0 0 1 0 .094.12.12 0 0 1-.042.065l-5.853 3.824c-.394.265-.647-.124-.447-.477"/>
</svg>
